img/twitter_icon.svg

<svg height="30" viewBox="0 0 30 30" width="30" xmlns="http://www.w3.org/2000/svg"><g fill="#fff"><path d="m15.0013333 29.867c-8.19799997 0-14.86766663-6.6688333-14.86766663-14.8658333 0-8.19833337 6.66966666-14.8681667 14.86766663-14.8681667 8.197 0 14.8651667 6.66983333 14.8651667 14.8681667 0 8.197-6.6685 14.8658333-14.8651667 14.8658333zm0-28.40066667c-7.4628333 0-13.5343333 6.07183334-13.5343333 13.53483337 0 7.4618333 6.0715 13.5325 13.5343333 13.5325 7.4616667 0 13.5318334-6.0708334 13.5318334-13.5325 0-7.46300003-6.0703334-13.53483337-13.5318334-13.53483337z"/><path d="m14.7543333 11.2465v.0868333c0 .2253334.0375.4936667.1073334.8045h-.0206667c-.2813333 0-.8265-.0655-1.6325-.192-.679-.1535-1.2871667-.339-1.823-.5518333-.566-.224-1.1726667-.5416667-1.82433333-.9526667-.494-.3115-1.04733334-.74949997-1.654-1.3148333-.31116667-.3255-.60083334-.63616667-.8685-.933-.32816667.6215-.48766667 1.22916667-.48766667 1.8226667v.1505c0 .8161666.29616667 1.6103333.8885 2.3738333.29866667.3376667.54533333.5655.74316667.678v.0213333c-.50833334 0-1.06683334-.1558333-1.67683334-.4668333v.1051667c0 .992.3835 1.8735 1.14733334 2.653.4795.4371666.927.7183333 1.33466666.8466666.269.099.43883334.1481667.5095.1481667 0 .0288333-.13966666.0643333-.42533333.1046667-.16783333.03-.297.044-.38033333.044h-.08483334-.06466666-.0635-.01983334c-.18483333 0-.3945-.0208334-.63566666-.0641667.3095.8771667.8255 1.5405 1.5475 1.9931667.64933333.4111666 1.30733333.6146666 1.97300003.6146666-.3695.3121667-.723.5525-1.0608334.7203334-1.1733333.5951666-2.3333333.892-3.47816663.892h-.2535c-.2555 0-.516-.0146667-.7845-.0423334.706.4676667 1.47683333.8415 2.30966666 1.124 1.145.394 2.31299997.593 3.49883337.593 1.9201666 0 3.6961666-.4461666 5.3221666-1.3358333.5226667-.2825 1.0865-.6875 1.6975-1.2086667.5776667-.5215.9745-.9258333 1.1865-1.208.5081667-.624.9313334-1.2598333 1.2705-1.9098333.2411667-.435.469-.946.6816667-1.5246667.4075-1.2163333.6125-2.3605.6125-3.4348333v-.5501667-.1088333c.2126667-.1265.566-.4313333 1.059-.9103333.3518333-.38183337.6295-.72800003.8288333-1.0376667h-.0196666c-.4813334.197-.9763334.361-1.4846667.48633333-.3835.05566667-.5938333.085-.6365.085v-.022c.155-.05566666.4186667-.26183333.7848333-.61616666.4235-.493.7061667-.97466667.849-1.44016667-.4955.29483333-1.013.52983333-1.5488333.69916667-.4826667.1415-.7711667.2125-.8726667.2125-.3493333-.33916667-.6191666-.54883334-.802-.63566667-.6065-.36783333-1.2496666-.55066667-1.9306666-.55066667h-.0198334c-1.0058333 0-1.8886666.35983334-2.65 1.07983334-.7641666.777-1.1485 1.66966663-1.1485 2.67183333"/></g></svg>

<svg xmlns="http://www.w3.org/2000/svg" width="30" height="30" viewBox="0 0 30 30">
  <g fill="#FFF">
    <path d="M15.0013333,29.867 C6.80333333,29.867 0.133666667,23.1981667 0.133666667,15.0011667 C0.133666667,6.80283333 6.80333333,0.133 15.0013333,0.133 C23.1983333,0.133 29.8665,6.80283333 29.8665,15.0011667 C29.8665,23.1981667 23.198,29.867 15.0013333,29.867 Z M15.0013333,1.46633333 C7.5385,1.46633333 1.467,7.53816667 1.467,15.0011667 C1.467,22.463 7.5385,28.5336667 15.0013333,28.5336667 C22.463,28.5336667 28.5331667,22.4628333 28.5331667,15.0011667 C28.5331667,7.53816667 22.4628333,1.46633333 15.0013333,1.46633333 Z"/>
    <path d="M14.7543333,11.2465 L14.7543333,11.3333333 C14.7543333,11.5586667 14.7918333,11.827 14.8616667,12.1378333 L14.841,12.1378333 C14.5596667,12.1378333 14.0145,12.0723333 13.2085,11.9458333 C12.5295,11.7923333 11.9213333,11.6068333 11.3855,11.394 C10.8195,11.17 10.2128333,10.8523333 9.56116667,10.4413333 C9.06716667,10.1298333 8.51383333,9.69183333 7.90716667,9.1265 C7.596,8.801 7.30633333,8.49033333 7.03866667,8.1935 C6.7105,8.815 6.551,9.42266667 6.551,10.0161667 L6.551,10.1666667 C6.551,10.9828333 6.84716667,11.777 7.4395,12.5405 C7.73816667,12.8781667 7.98483333,13.106 8.18266667,13.2185 L8.18266667,13.2398333 C7.67433333,13.2398333 7.11583333,13.084 6.50583333,12.773 L6.50583333,12.8781667 C6.50583333,13.8701667 6.88933333,14.7516667 7.65316667,15.5311667 C8.13266667,15.9683333 8.58016667,16.2495 8.98783333,16.3778333 C9.25683333,16.4768333 9.42666667,16.526 9.49733333,16.526 C9.49733333,16.5548333 9.35766667,16.5903333 9.072,16.6306667 C8.90416667,16.6606667 8.775,16.6746667 8.69166667,16.6746667 L8.60683333,16.6746667 L8.54216667,16.6746667 L8.47866667,16.6746667 L8.45883333,16.6746667 C8.274,16.6746667 8.06433333,16.6538333 7.82316667,16.6105 C8.13266667,17.4876667 8.64866667,18.151 9.37066667,18.6036667 C10.02,19.0148333 10.678,19.2183333 11.3436667,19.2183333 C10.9741667,19.5305 10.6206667,19.7708333 10.2828333,19.9386667 C9.1095,20.5338333 7.9495,20.8306667 6.80466667,20.8306667 L6.55116667,20.8306667 C6.29566667,20.8306667 6.03516667,20.816 5.76666667,20.7883333 C6.47266667,21.256 7.2435,21.6298333 8.07633333,21.9123333 C9.22133333,22.3063333 10.3893333,22.5053333 11.5751667,22.5053333 C13.4953333,22.5053333 15.2713333,22.0591667 16.8973333,21.1695 C17.42,20.887 17.9838333,20.482 18.5948333,19.9608333 C19.1725,19.4393333 19.5693333,19.035 19.7813333,18.7528333 C20.2895,18.1288333 20.7126667,17.493 21.0518333,16.843 C21.293,16.408 21.5208333,15.897 21.7335,15.3183333 C22.141,14.102 22.346,12.9578333 22.346,11.8835 L22.346,11.3333333 L22.346,11.2245 C22.5586667,11.098 22.912,10.7931667 23.405,10.3141667 C23.7568333,9.93233333 24.0345,9.58616667 24.2338333,9.2765 L24.2141667,9.2765 C23.7328333,9.4735 23.2378333,9.6375 22.7295,9.76283333 C22.346,9.8185 22.1356667,9.84783333 22.093,9.84783333 L22.093,9.82583333 C22.248,9.77016667 22.5116667,9.564 22.8778333,9.20966667 C23.3013333,8.71666667 23.584,8.235 23.7268333,7.7695 C23.2313333,8.06433333 22.7138333,8.29933333 22.178,8.46866667 C21.6953333,8.61016667 21.4068333,8.68116667 21.3053333,8.68116667 C20.956,8.342 20.6861667,8.13233333 20.5033333,8.0455 C19.8968333,7.67766667 19.2536667,7.49483333 18.5726667,7.49483333 L18.5528333,7.49483333 C17.547,7.49483333 16.6641667,7.85466667 15.9028333,8.57466667 C15.1386667,9.35166667 14.7543333,10.2443333 14.7543333,11.2465"/>
  </g>
</svg>
